dist/img/svg/ic_edit.svg

<svg width="24" height="24" viewBox="0 0 24 24" fill="none" xmlns="http://www.w3.org/2000/svg">
<path fill-rule="evenodd" clip-rule="evenodd" d="M1.87868 3.87868C2.44129 3.31607 3.20435 3 4 3H11C11.5523 3 12 3.44772 12 4C12 4.55228 11.5523 5 11 5H4C3.73478 5 3.48043 5.10536 3.29289 5.29289C3.10536 5.48043 3 5.73478 3 6V20C3 20.2652 3.10536 20.5196 3.29289 20.7071C3.48043 20.8946 3.73478 21 4 21H18C18.2652 21 18.5196 20.8946 18.7071 20.7071C18.8946 20.5196 19 20.2652 19 20V13C19 12.4477 19.4477 12 20 12C20.5523 12 21 12.4477 21 13V20C21 20.7957 20.6839 21.5587 20.1213 22.1213C19.5587 22.6839 18.7957 23 18 23H4C3.20435 23 2.44129 22.6839 1.87868 22.1213C1.31607 21.5587 1 20.7957 1 20V6C1 5.20435 1.31607 4.44129 1.87868 3.87868Z" fill="#A8AFC9"/>
<path fill-rule="evenodd" clip-rule="evenodd" d="M20 2.87891C19.7026 2.87891 19.4174 2.99705 19.2071 3.20733L9.90299 12.5115L9.37439 14.6259L11.4888 14.0973L20.7929 4.79312C21.0032 4.58283 21.1213 4.29762 21.1213 4.00023C21.1213 3.70283 21.0032 3.41762 20.7929 3.20733C20.5826 2.99705 20.2974 2.87891 20 2.87891ZM17.7929 1.79312C18.3783 1.20776 19.1722 0.878906 20 0.878906C20.8278 0.878906 21.6218 1.20776 22.2071 1.79312C22.7925 2.37848 23.1213 3.1724 23.1213 4.00023C23.1213 4.82805 22.7925 5.62197 22.2071 6.20733L12.7071 15.7073C12.579 15.8355 12.4184 15.9264 12.2426 15.9704L8.24256 16.9704C7.90178 17.0556 7.54129 16.9557 7.29291 16.7073C7.04453 16.459 6.94468 16.0985 7.02988 15.7577L8.02988 11.7577C8.07384 11.5819 8.16476 11.4213 8.29291 11.2931L17.7929 1.79312Z" fill="#A8AFC9"/>
</svg>

<svg width="24" height="24" xmlns="http://www.w3.org/2000/svg">
<path fill-rule="evenodd" clip-rule="evenodd" d="M1.879 3.879A3 3 0 014 3h7a1 1 0 110 2H4a1 1 0 00-1 1v14a1 1 0 001 1h14a1 1 0 001-1v-7a1 1 0 112 0v7a3 3 0 01-3 3H4a3 3 0 01-3-3V6a3 3 0 01.879-2.121z" />
<path fill-rule="evenodd" clip-rule="evenodd" d="M20 2.879c-.297 0-.583.118-.793.328l-9.304 9.304-.529 2.115 2.115-.529 9.304-9.304A1.121 1.121 0 0020 2.88zm-2.207-1.086a3.121 3.121 0 014.414 4.414l-9.5 9.5a1 1 0 01-.464.263l-4 1a1 1 0 01-1.213-1.212l1-4a1 1 0 01.263-.465l9.5-9.5z"/>
</svg>
